!!!COM: Anon.
!!!OTL: Sedo no Danbatake
!!!OTC: Japanese Popular Music: A Collection of The Popular Music of Japan Rendered in to the Staff notation.
!!!CNT: Nippon, Japanese
!!!TXO: Nippon, Japan
!!!OCY: Nippon, Japan
!!!ODT: <1892///
!!!PSR: S. Miki & Co.
!!!PSP: Osaka, Nippon
!!!PDT: 1892///
!!!PPE: Y Nagai & K. Kobatake
!!!PED: Revised Second Edition
!!!PPG: page 16-17
!! Moderato
**kern	**silbe
*ICstr	*Lnippon
*ICvox	*
*Ikoto	*
*Ivox	*
*clefG2	*
*k[]	*
*M4/4	*
=1-	=1-
4.g	.
8a	.
4cc	.
8a	.
=2	=2
4c	.
8dd	.
8dd	.
4c 4cc	.
4r	.
=3	=3
4.g	.
8a	.
4cc	.
4a	.
=4	=4
4c	.
8dd	.
8dd	.
4c 4cc	.
4r	.
=5	=5
4dd	.
4dd	.
4c	.
4a	.
=6	=6
4g	.
4f	.
4g	.
4dd	.
=7	=7
4r	.
4dd	.
4cc	.
4cc	.
=8	=8
4a	.
4cc	.
4c	.
8dd	.
=9	=9
4dd	.
4dd	.
8cc	.
8cc	.
8r	.
8a	.
=10	=10
4g	.
(4f	.
4d)	.
4f	.
=11	=11
4d	.
4f	.
4g	.
8a	.
8a	.
=12	=12
4a	.
4g	.
4c	.
8a	.
8a	.
=13	=13
4a	.
4g	.
4a	.
8cc	.
8cc	.
=14	=14
4g	.
4f	.
4g	.
4dd	.
=15	=15
4r	.
4dd	.
4cc	.
4cc	.
=16	=16
4a	.
4cc	.
4c	.
8dd	.
8dd	.
=17	=17
4dd	.
4dd	.
8cc	.
8cc	.
8r	.
8a	.
=18	=18
(4g	.
4f)	.
4d	.
4f	.
=19	=19
4d	.
4f	.
4g	.
8a	.
8a	.
=20	=20
4a	.
4g	.
4c	.
8a	.
8a	.
=21	=21
4a	.
4g	.
4a	.
8cc	.
8cc	.
=22	=22
4g	.
4f	.
4g	.
[4dd	.
=23	=23
4dd]	.
4dd	.
4cc	.
4cc	.
=24	=24
4a	.
4cc	.
4c	.
8dd	.
8dd	.
=25	=25
4dd	.
4dd	.
8cc	.
8cc	.
8r	.
8a	.
=26	=26
4g	.
(4f	.
4d)	.
4f	.
=27	=27
4d	.
4f	.
4g	.
8a	.
8a	.
=28	=28
4a	.
4g	.
4c	.
8a	.
8a	.
=29	=29
4a	.
4g	.
4a	.
8cc	.
8cc	.
=30	=30
4g	.
4f	.
4g	.
[4dd	.
=31	=31
4dd]	.
4dd	.
4cc	.
4cc	.
=32	=32
4a	.
4cc	.
4c	.
8dd	.
8dd	.
=33	=33
4dd	.
4dd	.
8cc	.
8cc	.
8cc	.
8a	.
=34	=34
4g	.
4f	.
4g	.
8a	.
8a	.
=35	=35
4a	.
4g	.
4a	.
8cc	.
8cc	.
=36	=36
4g	.
4f	.
4g	.
[4dd	.
=37	=37
4dd]	.
4dd	.
4cc	.
4cc	.
=38	=38
4a	.
4cc	.
4c	.
8dd	.
8dd	.
=39	=39
4dd	.
4dd	.
8cc	.
8cc	.
8cc	.
8a	.
=40	=40
4g	.
4f	.
4d	.
4r	.
=41	=41
4f	.
4d	.
4f	.
4g	.
=42	=42
4d	.
4c	.
4f	.
4r	.
=43	=43
4f	.
4d	.
4f	.
4r	.
=44	=44
4dd	.
4dd	.
4cc	.
4r	.
=45	=45
4g	.
4f	.
4d	.
4f	.
=46	=46
4d	.
4f	.
2g	.
=47	=47
4g	.
8r	.
8a	.
4cc	.
4a	.
=48	=48
4c	.
8dd	.
8dd	.
4c 4cc	.
4r	.
=49	=49
4.g	.
8a	.
4cc	.
4a	.
=50	=50
4c	.
8dd	.
8dd	.
4c 4cc	.
4r	.
=51	=51
4.g	.
8a	.
4cc	.
4a	.
=52	=52
4c	.
8dd	.
8dd	.
4c 4cc	.
4r	.
=53	=53
4.g	.
8a	.
4cc	.
4a	.
=54	=54
4c	.
8dd	.
8dd	.
4c 4cc	.
4r	.
=55	=55
4r	.
4ff	.
4d	.
4a	.
=56	=56
4cc	.
4r	.
4g	.
4r	.
=57	=57
4g	.
4r	.
4g	.
4c	.
=58	=58
4g	.
4g	.
2g	.
=59	=59
2g	.
2g;	.
==	==
*-	*-
!!!ENC: David Huron
!!!RDT: 2000/1/30
!!!EEV: Release 1.0
!!!ELF: 6/28
!!!YER: 2000/2/1
!!!YEM: Copyright David Huron, 2000
!!!YEN: United States of America
